X:565
T:Parnell and Ireland Jig
M:6/8
L:1/8
Z:abc by Bruce Osborne - bosborne@kos.net
K:D
A|fed fga|fed fga|fga afd|fee e2 A|!
fed fga|fed fga|fga afd|edd d2:|!
|:A|afa geg|fdf ecA|afa baf|fee e2 A|!
afa geg|fdf ecA|dcd eag|fdd d2:|!
